X:77
T:Island under some blue
C:copyright (c) 1999 R. S. Doiel, all rights reserved
R:Jig
M:6/8
L:1/8
Q:1/4=70
K:G
|: "G" d2d GAB | "G" d2d "D" dcB | "A" A2 A DEF | "D" A2 A edc | 
"G" GAB DEF | "G" dcB "D" AGF | "G" GAB "D" DEF | "A" A2 A edc :|
|: "D" D2 E  F2 G | "A" A2 A edc | "D" A2 A edc | "G" G2 G dcB |
"D" D2 D GAB | "A" A2 A BAE | "D" D2 E F2 G | "A" A2 A edc |
"D" A2 A edc | "G" G2 G edc | "D" A2 A DEF |1  "A" A2 A FGA :|2 "A" A2 A z3 |]





